X:359
T:Castle Kelly
H:near Tallaght, Dublin
N:See #356 for further history
R:reel
B:Joyce, P. W.; "Old Irish Folk Music and Songs"
A:Kildare
O:Irish
K:G
L:1/8
M:C
A2 cA A2 cA|GAEF GAEG|A2 cA GABd|egde cA A2:|
gedc d2 ed|cAGE G3 f|gedc d2 cd|eaag ac'ba|
gedc d2 ed|cAGE G3 B|A2 cA GABd|egde cA A2||

